X:15
T:The Stack of Wheat
C:Traditional
M:4/4
L:1/8
Q:1/4=70
K:G
|: BA | "G" GEDE GABG | "A" A2 "G" GA Bdef | "G" gedB GABd | "G" dBAG "Em" E2 BA |
"G" GEDE GABG | "A" A2 "G" GA Bdef | "G" gedB GABG | "G" AGEF G2 :|
|: Bd | edBd edgd | edBd e3 f | gedB GABd | dBAG E2 |
|1 Bd | edBd edgd | edBd e3 f | gedB GABG | AGEF G2 :|
|2 BA | GEDE GABG | A2 GA Bdef | gfdB GABG | AGEF G2 ||




%
% Father O'Flynn
%
